assets/icons/icon_angle_left.svg

<svg width="48" height="48" viewBox="0 0 48 48" fill="none" xmlns="http://www.w3.org/2000/svg">
<g clip-path="url(#clip0_2188_3181)">
<path d="M30.8399 39.9998C30.4599 39.9998 30.0699 39.8498 29.7799 39.5598L16.6899 26.4698C15.3299 25.1098 15.3299 22.8898 16.6899 21.5198L29.7799 8.4298C30.3699 7.8398 31.3199 7.8398 31.8999 8.4298C32.4799 9.0198 32.4899 9.9698 31.8999 10.5498L18.8099 23.6398C18.6199 23.8398 18.6199 24.1498 18.8099 24.3498L31.8999 37.4398C32.4899 38.0298 32.4899 38.9798 31.8999 39.5598C31.6099 39.8498 31.2199 39.9998 30.8399 39.9998Z" fill="black"/>
</g>
<defs>
<clipPath id="clip0_2188_3181">
<rect width="48" height="48" fill="white"/>
</clipPath>
</defs>
</svg>

<?xml version="1.0" encoding="UTF-8"?>
<svg xmlns="http://www.w3.org/2000/svg" viewBox="0 0 48 48">
  <defs>
    <style>
      .cls-1 {
        fill: none;
        opacity: .2;
      }
    </style>
  </defs>
  <g id="guid">
    <g>
      <rect class="cls-1" width="48" height="48"/>
      <rect class="cls-1" x="4" y="4" width="40" height="40"/>
    </g>
  </g>
  <g id="Layer_2" data-name="Layer 2">
    <path d="M30.84,40c-.38,0-.77-.15-1.06-.44l-13.09-13.09c-1.36-1.36-1.36-3.58,0-4.95l13.09-13.09c.59-.59,1.54-.59,2.12,0s.59,1.54,0,2.12l-13.09,13.09c-.19.2-.19.51,0,.71l13.09,13.09c.59.59.59,1.54,0,2.12-.29.29-.68.44-1.06.44Z"/>
  </g>
</svg>
